src/images/std-icons/std-answer.svg

<svg xmlns="http://www.w3.org/2000/svg" width="512" height="512" viewBox="0 0 512 512">
  <title>answer</title>
  <path d="M388.503893,85.3333333 L123.496107,85.3333333 C102.419791,85.3333333 85.3333333,102.418511 85.3333333,123.494827 L85.3333333,388.503893 C85.3333333,398.625307 89.3539678,408.332191 96.5108884,415.489112 C103.667809,422.646032 113.374693,426.666667 123.496107,426.666667 L388.503893,426.666667 C398.625307,426.666667 408.332191,422.646032 415.489112,415.489112 C422.646032,408.332191 426.666667,398.625307 426.666667,388.503893 L426.666667,123.494827 C426.666667,102.418511 409.580209,85.3333333 388.503893,85.3333333 Z M234.666667,362.666667 L149.333333,362.666667 C137.551259,362.666667 128,353.115408 128,341.333333 C128,329.551259 137.551259,320 149.333333,320 L234.666667,320 C246.448741,320 256,329.551259 256,341.333333 C256,353.115408 246.448741,362.666667 234.666667,362.666667 Z M362.666667,277.333333 L149.333333,277.333333 C137.551259,277.333333 128,267.782075 128,256 C128,244.217925 137.551259,234.666667 149.333333,234.666667 L362.666667,234.666667 C374.448741,234.666667 384,244.217925 384,256 C384,267.782075 374.448741,277.333333 362.666667,277.333333 Z M362.666667,192 L149.333333,192 C137.551259,192 128,182.448741 128,170.666667 C128,158.884592 137.551259,149.333333 149.333333,149.333333 L362.666667,149.333333 C374.448741,149.333333 384,158.884592 384,170.666667 C384,182.448741 374.448741,192 362.666667,192 Z"/>
</svg>

<svg xmlns="http://www.w3.org/2000/svg" viewBox="0 0 512 512">
  <title>
    answer
  </title>
  <path d="M388.5 85.33h-265a38.16 38.16 0 0 0-38.17 38.16V388.5a38.16 38.16 0 0 0 38.17 38.17h265a38.16 38.16 0 0 0 38.17-38.17v-265a38.16 38.16 0 0 0-38.17-38.17zM234.67 362.67h-85.34a21.33 21.33 0 0 1 0-42.67h85.34a21.33 21.33 0 0 1 0 42.67zm128-85.34H149.33a21.33 21.33 0 1 1 0-42.66h213.34a21.33 21.33 0 1 1 0 42.66zm0-85.33H149.33a21.33 21.33 0 0 1 0-42.67h213.34a21.33 21.33 0 0 1 0 42.67z"/>
</svg>
